!!!SOCIAL_FUNCTION:	cochiti
!!!PDT:	1957
!!!OTL: No_63_Ouwe_Dance_Song.krn
!!!LING_GROUP: Keresan
!!!LANG: Tone
!!!REG: Southwest
**kern
*staff1
=1-
=
*clefF4
*k[b-e-a-d-]
*M2/4
8A-\L
8F\J
4F\
=2
4F\
8F\L
8F\J
=3
4F\
4r
=4
8A-\L
8F\J
4F\
=5
4F\
8F\L
8F\J
=6
4F\
4r
=7:|!|:
4F\
8F\L
8e-\J
=8
8f\L
8e-\J
8e-\L
8B-\J
=9
4d-\
4r
=10
8d-\L
8B-\J
8B-\L
8d-\J
=11
8e-\L
8d-\J
8d-\L
8B-\J
=12
8d-\L
8B-\J
8A-\L
8F\J
=13
4A-\
4r
=14
8A-\L
8F\J
8F\L
8F\J
=15
4F\
4A-\
=16
4c\
4B-\
=17
8c\L
8B-\J
4B-\
=18
4A-\
4F\
=19
4B-\
8B-\
8r
=20
8A-\L
8F\J
8F\L
8F\J
=21
4F\
4A-\
=22
8c\L
8B-\J
8c\L
8B-\J
=23
4A-\
8F\
8r
=24
8B-\L
8A-\J
8B-\L
8A-\J
=25
4F\
4A-\
=26
4F\
8F\
8r
=27
8A-\L
8F\J
8F\L
8F\J
=28
4F\
4A-\
=29
4c\
4B-\
=30
8c\L
8B-\J
8B-\
8r
=31
4A-\
4F\
=32
8B-\L
8B-\J
8B-\
8r
=33
4c\
4B-\
=34
8c\L
8B-\J
4B-\
=35
4A-\
4F\
=36
8B-\L
8B-\J
8B-\
8r
=37
16B-^\LL
16A-\J
8F\J
4F\
=38
4.F\
8A-\
=39
8A-\L
8F\J
4F\
=40
8A-\L
8F\J
8r
8A-\
=41
4B-\
4A-\
=42
4.B-\
16A-\LL
16F\JJ
=43
4.A-\
8A-\
=44
4F\
4r
=45
8A-\L
8F\J
8F\L
8F\J
=46
8A-\L
8F\J
4F\
=47
4F\
4F\
=48
4F\
4r
=49
2r
=50:|!|:
8f\L
8f\J
4f\
=51
4g\
4g\
=52
8g\L
8f\J
4f\
=53
4e-\
4B-\
=54
8B-\L
8B-\J
8B-\L
8B-\J
=55
4B-\
8B-\
8r
=56
4c\
4A-\
=57
8B-\L
8B-\J
8B-\
8r
=58
4B-\
4B-\
=59
4A-\
8F\L
8F\J
=60
8B-\L
8B-\J
4B-\
=61
4B-\
8B-\
8r
=62
4c\
4A-\
=63
8B-\L
8B-\J
8B-\
8r
=64
8B-\L
8A-\J
8F\L
8F\J
=65
4F\
4A-\
=66
4c\
4B-\
=67
8c\L
8B-\J
8B-\L
8A-\J
=68
!!pagebreak:default
8B-\L
8B-\J
8B-\
8r
=69
8B-\L
8B-\J
4B-\
=70
4B-\
8B-\L
8e-\J
=71
8e-\L
8B-\J
8B-\L
8A-\J
=72
8B-\L
8B-\J
8B-\
8r
=73
8c\L
8B-\J
4A-\
=74
4.F\
8A-\
=75
8B-\L
8B-\J
4B-\
=76
4.F\
8A-\
=77
8B-\L
8B-\J
4A-\
=78
4B-\
8A-\L
8F\J
=79
4.A-\
8A-\
=80
*M3/4
2F\
4r
=81
*M2/4
4F\
8r
8f\
=82
4f\
8c\L
8d-\J
=83
4c\
8A-\L
8B-\J
=84
*M3/8
4B-\
8A-\
=85
*M2/4
8F\L
8F\J
8F\
8r
=86
*M5/8
4F\
4F\
8A-\
=87
*M2/4
4c\
8A-\L
8c\J
=88
8B-\L
8B-\J
4r
=89
*M3/4
8.B-\L
16c\Jk
8B-\L
8A-\J
8F\L
8A-\J
=90
=
*M5/4
2F\
2.r
=91||
*M2/4
4F\
4r
=92
4F\
8r
8f\
=93
4f\
8c\L
8d-\J
=94
4c\
8A-\L
8B-\J
=95
*M3/8
4B-\
8A-\
=96
*M2/4
8F\L
8F\J
8F\
8r
=97
*M5/8
4F\
4F\
8A-\
=98
*M2/4
4c\
8A-\L
8c\J
=99
8B-\L
8B-\J
4r
=100
*M3/4
8.B-\L
16c\Jk
8B-\L
8A-\J
8F\L
8A-\J
=101
4F\
4F\
4F\
=102
4.A-\
8F\
4F\
=103
*M2/4
4F\
4r
=104
*M3/4
4.A-\
8F\
4F\
=105
*M2/4
8A-\L
8F\J
4F\
=106
4F\
4F\
=107
4F\
4r
=108
2r
=109
16B-\LK
8.A-\J
8A-\L
8A-\J
=110
*M7/8
4A-\
8A-\L
8A-\
8A-\J
4A-\
=111
*M2/4
16B-\LK
8.A-\J
8A-\L
8A-\J
=112
*M5/8
4A-\
8A-\L
8A-\
8A-\J
=113
4A-\
4r
8r
==
*-
